assets/images/ico_step1.svg

<svg width="79" height="67" viewBox="0 0 79 67" fill="none" xmlns="http://www.w3.org/2000/svg">
<path d="M50.0808 54.1758C49.7098 53.8041 49.1082 53.8041 48.7372 54.1758L40.287 62.6443V27.8014C40.287 27.2761 39.8614 26.8494 39.337 26.8494C38.8126 26.8494 38.387 27.2761 38.387 27.8014V62.6441L29.9365 54.1756C29.5655 53.8038 28.9641 53.8038 28.5929 54.1756C28.222 54.5473 28.222 55.1499 28.5929 55.5217L38.6653 65.6153C38.7532 65.7031 38.8572 65.7728 38.9733 65.8212C39.0897 65.8695 39.2135 65.8942 39.3372 65.8942C39.4609 65.8942 39.5847 65.8695 39.701 65.8212C39.8172 65.7728 39.9212 65.7031 40.0091 65.6153L50.0812 55.5217C50.4517 55.1502 50.4517 54.5476 50.0808 54.1758Z" fill="#2EBBE1" stroke="#2EBBE1"/>
<path d="M62.9253 47.4928H46.2224C45.698 47.4928 45.2721 47.0666 45.2721 46.5408C45.2721 46.0151 45.698 45.5888 46.2224 45.5888H62.9253C70.0101 45.5888 75.775 39.8119 75.775 32.7109C75.775 25.6113 70.0104 19.8358 62.9253 19.8358H58.78C58.3432 19.8358 57.9622 19.5369 57.857 19.1118C55.5017 9.56871 47.0102 2.90424 37.2078 2.90424C25.4642 2.90424 15.9103 12.4783 15.9103 24.2464C15.9103 24.7722 15.4847 25.1984 14.9603 25.1984H13.0738C7.46356 25.1984 2.9 29.773 2.9 35.3948C2.9 41.0157 7.46356 45.5888 13.0738 45.5888H32.4538C32.9782 45.5888 33.4038 46.0151 33.4038 46.5408C33.4038 47.0666 32.9782 47.4928 32.4538 47.4928H13.0738C6.41571 47.4928 1 42.0652 1 35.3948C1 28.723 6.41595 23.2944 13.0738 23.2944H14.03C14.5297 10.9163 24.7355 1 37.2078 1C47.6365 1 56.7028 7.92485 59.511 17.9316H62.9253C71.058 17.9316 77.675 24.5613 77.675 32.7109C77.675 40.8617 71.058 47.4928 62.9253 47.4928Z" fill="#2EBBE1" stroke="#2EBBE1"/>
</svg>

<svg width="79" height="67" fill="none" xmlns="http://www.w3.org/2000/svg"><path d="M50.08 54.176a.949.949 0 00-1.343 0l-8.45 8.468V27.801a.951.951 0 00-.95-.952.951.951 0 00-.95.952v34.843l-8.45-8.468a.949.949 0 00-1.344 0 .953.953 0 000 1.346l10.072 10.093a.954.954 0 001.036.206.953.953 0 00.308-.206l10.072-10.093a.953.953 0 000-1.346z" fill="#2EBBE1" stroke="#2EBBE1"/><path d="M62.925 47.493H46.222a.951.951 0 010-1.904h16.703c7.085 0 12.85-5.777 12.85-12.878 0-7.1-5.765-12.875-12.85-12.875H58.78a.952.952 0 01-.923-.724C55.502 9.569 47.01 2.904 37.207 2.904c-11.743 0-21.297 9.574-21.297 21.342a.951.951 0 01-.95.952h-1.886c-5.61 0-10.174 4.575-10.174 10.197 0 5.62 4.564 10.194 10.174 10.194h19.38a.951.951 0 010 1.904h-19.38C6.416 47.493 1 42.065 1 35.395c0-6.672 5.416-12.1 12.074-12.1h.956C14.53 10.915 24.735 1 37.208 1 47.636 1 56.703 7.925 59.51 17.932h3.414c8.133 0 14.75 6.63 14.75 14.779 0 8.15-6.617 14.782-14.75 14.782z" fill="#2EBBE1" stroke="#2EBBE1"/></svg>
